X: 20733
M: 3/4
L: 1/8
K: G
(d2c2)B2 | e2(dc)(BA) | (G3B)(AF) | G4 |] FG |\
d2c2B2 | e2(dc)(BA) | (G3A)F2 | G4 |]


